!!!OTL: Die elfjaehrige Markgraefin.
!!!OTL-incipit: Ich waiss ein schoens Lustgaertelein
!!!ARE: Europa, Mitteleuropa, Deutschland
!!!YOR: 2, S. 294
!!    1646 Handschrift Kloster Seeon
!!!SCT: Q1053H
!!!TXL: @@DE
!!!YEM: Copyright 1995, estate of Helmut Schaffrath.
**kern	**text
*ICvox	*
!! Mixed meters:  2/2; 3/2
*M3/2	*
*k[b-]	*
*F:	*
!LO:TX:a:t=Werlin S.1476	!
{4f	Jch
4f	waiß
4g	ein
=1	=1
4a	ſchöns
4b-	Luſt-
4.g	-gär-
8g	-te-
=2	=2
2f	-lein...
4r}	.
{4f	.
4cc	.
4dd	.
=3	=3
*M2/2	*
4ee-	.
4cc	.
2dd	.
=4	=4
*M3/2	*
2cc	.
4r}	.
{4cc	.
4cc	.
4cc	.
=5	=5
(4ff	.
8eeL	.
8ddJ	.
4cc)	.
4dd	.
4cc	.
4cc	.
=6	=6
2a	.
4r}	.
{4cc	.
4a	.
4cc	.
=7	=7
4.b-	.
8a	.
4g	.
4f	.
2g	.
=8	=8
4f;}	.
==	==
!!!AGN: ???
!! Melodievergleich zu Q0053 , anderes Lied.
!!!ONB: ESAC (Essen Associative Code) Database: BALLADE
!!!AMT: irregular
!!!AIN: vox
!!!EED: Helmut Schaffrath
!!!EEV: 1.0
!!!source: Deutsche Volkslieder mit ihren Melodien. Herausgegeben vom Deutschen Volksliedarchiv. Zweiter Band Balladen. Berlin 1939.
!!!page: 294
!!!ENC: Anna Maria Matuszewska
!!!EEV: 2025/02/17
*-	*-
